style-guide/assets/xd-icons-tag.svg

<?xml version="1.0" encoding="UTF-8"?>
<svg width="24px" height="24px" viewBox="0 0 24 24" version="1.1" xmlns="http://www.w3.org/2000/svg" xmlns:xlink="http://www.w3.org/1999/xlink">
    <!-- Generator: Sketch 51.3 (57544) - http://www.bohemiancoding.com/sketch -->
    <title>tag</title>
    <desc>Created with Sketch.</desc>
    <defs>
        <path d="M22.00025,10.586 L11.00025,21.586 L2.41425,13 L13.41425,2 L22.00025,2 L22.00025,10.586 Z M23.00025,0 L13.00025,0 C12.73425,0 12.48025,0.106 12.29325,0.293 L0.29325,12.293 C-0.09775,12.684 -0.09775,13.316 0.29325,13.707 L10.29325,23.707 C10.48825,23.902 10.74425,24 11.00025,24 C11.25625,24 11.51225,23.902 11.70725,23.707 L23.70725,11.707 C23.89525,11.52 24.00025,11.266 24.00025,11 L24.00025,1 C24.00025,0.447 23.55325,0 23.00025,0 Z M17.00025,9.0001 C18.10325,9.0001 19.00025,8.1041 19.00025,7.0001 C19.00025,5.8961 18.10325,5.0001 17.00025,5.0001 C15.89725,5.0001 15.00025,5.8961 15.00025,7.0001 C15.00025,8.1041 15.89725,9.0001 17.00025,9.0001" id="path-1"></path>
    </defs>
    <g id="tag" stroke="none" stroke-width="1" fill="none" fill-rule="evenodd">
        <mask id="mask-2" fill="white">
            <use xlink:href="#path-1"></use>
        </mask>
        <use id="icons/24px/Tag" fill="#000000" xlink:href="#path-1"></use>
    </g>
</svg>

<svg viewBox="0 0 24 24" xmlns="http://www.w3.org/2000/svg" xmlns:xlink="http://www.w3.org/1999/xlink">
  <path d="M22 10.586l-11 11L2.414 13l11-11H22v8.586zM23 0H13a1 1 0 0 0-.707.293l-12 12a.999.999 0 0 0 0 1.414l10 10a.997.997 0 0 0 1.414 0l12-12A.996.996 0 0 0 24 11V1a1 1 0 0 0-1-1zm-6 9c1.103 0 2-.896 2-2s-.897-2-2-2-2 .896-2 2 .897 2 2 2"/>
</svg>
